web/abstruse/src/assets/images/avatars/avatar_6.svg

<svg width="233px" height="267px" viewBox="0 0 233 267" version="1.1" xmlns="http://www.w3.org/2000/svg" xmlns:xlink="http://www.w3.org/1999/xlink">
    <!-- Generator: Sketch 50.2 (55047) - http://www.bohemiancoding.com/sketch -->
    <desc>Created with Sketch.</desc>
    <defs>
        <path d="M124,144.610951 L124,163 L128,163 C167.764502,163 200,195.235498 200,235 L200,244 L0,244 L0,235 C-4.86974701e-15,195.235498 32.235498,163 72,163 L76,163 L76,144.610951 C58.7626345,136.422372 46.3722246,119.687011 44.3051388,99.8812385 C38.4803105,99.0577866 34,94.0521096 34,88 L34,74 C34,68.0540074 38.3245733,63.1180731 44,62.1659169 L44,56 C44,25.072054 69.072054,5.68137151e-15 100,0 C130.927946,-5.68137151e-15 156,25.072054 156,56 L156,62.1659169 C161.675427,63.1180731 166,68.0540074 166,74 L166,88 C166,94.0521096 161.51969,99.0577866 155.694861,99.8812385 C153.627775,119.687011 141.237365,136.422372 124,144.610951 Z" id="path-1"></path>
        <path d="M165.624032,29.2681342 C202.760022,32.1373245 232,63.1798426 232,101.051724 L232,110 L32,110 L32,101.051724 C32,62.8348009 61.7752018,31.5722494 99.3929298,29.1967444 C99.1342224,30.2735458 99,31.3767131 99,32.5 C99,44.3741221 113.998461,54 132.5,54 C151.001539,54 166,44.3741221 166,32.5 C166,31.4015235 165.871641,30.3222877 165.624025,29.2681336 Z" id="path-3"></path>
        <rect id="path-5" x="0" y="0" width="264" height="280"></rect>
        <path d="M217,267 L217,258 C217,218.235498 184.764502,186 145,186 L141,186 L141,167.610951 C158.530782,159.282984 171.048193,142.114792 172.791419,121.867187 C178.569129,121.002364 183,116.018625 183,110 L183,97 C183,96.4315537 182.960475,95.8723389 182.884023,95.3249541 C161.364085,83.7373848 142.890027,67.1442914 130.845581,48.302359 C112.763849,73.9237118 76.5299076,78.5347548 51.2240944,94.679971 C51.0770557,95.4306015 51,96.2063021 51,97 L51,110 C51,116.018625 55.4308707,121.002364 61.2085808,121.867187 C62.9518066,142.114792 75.4692178,159.282984 93,167.610951 L93,186 L89,186 C49.235498,186 17,218.235498 17,258 L17,267 L16.0053198,267 C-22.4337677,245.051165 20.8572256,209.888877 21.1740982,198 C21.5397764,186.255758 -0.277399696,183.560973 0.00267373922,155 C0.944497502,125.971596 31.3716806,128.588232 31.2026676,109 C31.3716806,89.9992744 19.8139454,82.1607482 31.2026676,46 C42.8395963,9.53932757 72.9165934,0.768171773 116.002651,0.0159928999 L116.002651,0 C116.16951,0.002426813 116.336177,0.0049705256 116.502651,0.0076322645 C116.669125,0.0049705256 116.835791,0.002426813 117.002651,0 L117.002651,0.0159928999 C160.088708,0.768171773 190.165705,9.53932757 201.802634,46 C213.191356,82.1607482 201.633621,89.9992744 201.802634,109 C201.633621,128.588232 232.060804,125.971596 233.002628,155 C233.282701,183.560973 211.465525,186.255758 211.831204,198 C212.148076,209.888877 255.439069,245.051165 216.999964,267.00001 Z" id="path-7"></path>
        <path d="M217,267 L217,258 C217,218.235498 184.764502,186 145,186 L141,186 L141,140 L93,140 L93,186 L89,186 C49.235498,186 17,218.235498 17,258 L17,267 L16.0053198,267 C-22.4337677,245.051165 20.8572256,209.888877 21.1740982,198 C21.5397764,186.255758 -0.277399696,183.560973 0.00267373922,155 C0.944497502,125.971596 31.3716806,128.588232 31.2026676,109 C31.3716806,89.9992744 19.8139454,82.1607482 31.2026676,46 C42.8395963,9.53932757 72.9165934,0.768171773 116.002651,0.0159928999 L116.002651,0 C116.16951,0.002426813 116.336177,0.0049705256 116.502651,0.0076322645 C116.669125,0.0049705256 116.835791,0.002426813 117.002651,0 L117.002651,0.0159928999 C160.088708,0.768171773 190.165705,9.53932757 201.802634,46 C213.191356,82.1607482 201.633621,89.9992744 201.802634,109 C201.633621,128.588232 232.060804,125.971596 233.002628,155 C233.282701,183.560973 211.465525,186.255758 211.831204,198 C212.148076,209.888877 255.439069,245.051165 216.999964,267.00001 Z" id="path-9"></path>
    </defs>
    <g id="Introduction" stroke="none" stroke-width="1" fill="none" fill-rule="evenodd">
        <g id="Intro" transform="translate(-214.000000, -568.000000)">
            <g id="middle" transform="translate(199.000000, 555.000000)">
                <g id="Avataaar/Default">
                    <g id="Body" stroke-width="1" fill-rule="evenodd" transform="translate(32.000000, 36.000000)">
                        <mask id="mask-2" fill="white">
                            <use xlink:href="#path-1"></use>
                        </mask>
                        <use fill="#D0C6AC" xlink:href="#path-1"></use>
                        <g id="Skin/👶🏼-04-Light" mask="url(#mask-2)" fill="#EDB98A">
                            <g transform="translate(-32.000000, 0.000000)" id="Color">
                                <rect x="0" y="0" width="264" height="244"></rect>
                            </g>
                        </g>
                        <path d="M156,94 L156,102 C156,132.927946 130.927946,158 100,158 C69.072054,158 44,132.927946 44,102 L44,94 C44,124.927946 69.072054,150 100,150 C130.927946,150 156,124.927946 156,94 Z" id="Neck-Shadow" fill-opacity="0.100000001" fill="#000000" mask="url(#mask-2)"></path>
                    </g>
                    <g id="Clothing/Graphic-Shirt" transform="translate(0.000000, 170.000000)">
                        <mask id="mask-4" fill="white">
                            <use xlink:href="#path-3"></use>
                        </mask>
                        <use id="Clothes" fill="#E6E6E6" fill-rule="evenodd" xlink:href="#path-3"></use>
                        <g id="Color/Palette/Blue-03" mask="url(#mask-4)" fill="#25557C" fill-rule="evenodd">
                            <rect id="🖍Color" x="0" y="0" width="264" height="110"></rect>
                        </g>
                        <g id="Clothing/Graphic/Bat" mask="url(#mask-4)" fill="#FFFFFF" fill-rule="evenodd">
                            <g transform="translate(77.000000, 58.000000)" id="Batman!">
                                <path d="M87.6852404,13.4031978 C86.29151,6.97182978 81.4755637,3.2534243 75.1844381,1.81688169 C72.6586144,1.2402574 64.2721154,-0.570361088 65.5784818,4.22465302 C66.1709196,6.39748644 65.8414841,8.18940114 64.0250388,9.99135202 C62.2550056,11.7463153 58.793658,12.1906445 57.0732221,9.97994727 C55.5989529,8.08493361 57.5000322,5.25883596 56.3515582,3.41309083 C55.9056373,2.69596 55.1361961,2.32963935 54.323983,2.68090573 C53.1827893,3.17450341 53.7902429,4.23560158 53.2510425,4.99880761 C52.4024277,6.20178089 52.005649,5.82542406 51.2416681,4.6261003 C50.7616206,3.87247426 51.2334777,3.05133209 49.9949096,2.72926188 C48.5615922,2.35655457 48.0924652,3.5572469 47.9627841,4.65164695 C47.8813352,5.33866923 48.2849392,6.44356164 48.2990449,7.14016392 C48.3263462,8.50417231 48.2084956,10.4630526 47.5741958,11.668763 C46.449383,13.8060136 44.8695487,13.1221847 43.1909749,11.7645629 C41.2107218,10.1633357 40.6296595,8.3800886 41.0127875,5.94768301 C41.4719041,3.03125972 41.3053663,0.239376333 37.7334484,2.06368053 C32.7127425,4.62792506 28.0537786,9.19894983 25.144827,13.9830154 C22.6999971,18.0025063 20.7757117,22.8759851 22.9416134,27.4556775 C25.1521073,32.1307136 28.8036539,36.1460988 33.9080837,37.3394921 C35.2294658,37.6483328 38.9997729,39.1501106 40.2533568,37.8905698 C42.1999383,35.9335142 37.7052371,34.1082977 36.8179454,32.9158167 C35.5598113,31.2256324 34.4805006,28.0012808 35.8614905,26.0944062 C37.6206031,23.6670187 39.4602546,25.0200786 40.9063125,26.7376343 C42.0415909,28.085676 43.6550967,31.5636693 45.4119342,28.759925 C46.621381,26.8288723 46.513086,23.6583511 49.812446,25.0433443 C54.5269225,27.0213845 54.6716193,36.1552226 55.5120438,40.3343801 C55.879246,42.1637024 57.5473544,44.3981215 58.9829469,41.8594236 C59.7719539,40.4634819 59.3460539,37.437573 59.2022672,35.9960123 C58.9055932,33.0111605 58.1225014,30.0760334 59.092607,27.1190092 C59.6536484,25.4082963 61.093336,22.9594679 63.2223811,24.2751201 C64.9469121,25.3407802 64.2284333,30.0910877 66.5745236,30.0824201 C68.6412307,30.075121 68.0774592,26.2910242 69.1777009,25.0433443 C70.8571848,23.1387506 74.0937518,24.0442879 75.0870635,26.2919365 C76.4243714,29.3169331 72.88476,31.4176885 73.0435625,34.0768205 C73.1982698,36.6684365 76.5376717,35.657063 77.9345873,34.9996931 C80.8057722,33.6493704 83.0526678,31.1467116 84.6097509,28.428731 C87.0172691,24.2253954 88.7354298,18.2068795 87.6852404,13.4031978"></path>
                            </g>
                        </g>
                    </g>
                    <g id="Face" stroke-width="1" fill-rule="evenodd" transform="translate(76.000000, 82.000000)">
                        <g id="Mouth/Twinkle" transform="translate(2.000000, 52.000000)" fill="#000000" fill-opacity="0.599999964" fill-rule="nonzero">
                            <path d="M40,16 C40,21.371763 46.1581544,25 54,25 C61.8418456,25 68,21.371763 68,16 C68,14.8954305 67.050301,14 66,14 C64.7072748,14 64.1302316,14.9051755 64,16 C62.7575758,18.9378973 59.6832595,20.7163149 54,21 C48.3167405,20.7163149 45.2424242,18.9378973 44,16 C43.8697684,14.9051755 43.2927252,14 42,14 C40.949699,14 40,14.8954305 40,16 Z" id="Mouth"></path>
                        </g>
                        <g id="Nose/Default" transform="translate(28.000000, 40.000000)" fill="#000000" fill-opacity="0.16">
                            <path d="M16,8 C16,12.418278 21.372583,16 28,16 C34.627417,16 40,12.418278 40,8" id="Nose"></path>
                        </g>
                        <g id="Eyes/Eye-Roll-🙄" transform="translate(0.000000, 8.000000)">
                            <circle id="Eyeball" fill="#FFFFFF" cx="30" cy="22" r="14"></circle>
                            <circle id="The-white-stuff" fill="#FFFFFF" cx="82" cy="22" r="14"></circle>
                            <circle id="Eye" fill-opacity="0.699999988" fill="#000000" cx="30" cy="14" r="6"></circle>
                            <circle id="Eye" fill-opacity="0.699999988" fill="#000000" cx="82" cy="14" r="6"></circle>
                        </g>
                        <g id="Eyebrow/Outline/Raised-Excited" fill="#000000" fill-opacity="0.599999964">
                            <g id="I-Browse" transform="translate(12.000000, 0.000000)">
                                <path d="M3.97579559,17.1279169 C5.47099148,7.60476158 18.0585488,1.10867597 27.1635167,5.30104271 C28.1668367,5.76301969 29.3546946,5.32417444 29.8166716,4.32085442 C30.2786486,3.3175344 29.8398033,2.12967649 28.8364833,1.66769952 C17.3488212,-3.62177466 1.93575948,4.3324746 0.0242044059,16.507492 C-0.147121205,17.5986938 0.598585765,18.6221744 1.68978754,18.7935 C2.78098932,18.9648257 3.80446998,18.2191187 3.97579559,17.1279169 Z" id="Eyebrow" fill-rule="nonzero"></path>
                                <path d="M61.9757956,17.1279169 C63.4709915,7.60476158 76.0585488,1.10867597 85.1635167,5.30104271 C86.1668367,5.76301969 87.3546946,5.32417444 87.8166716,4.32085442 C88.2786486,3.3175344 87.8398033,2.12967649 86.8364833,1.66769952 C75.3488212,-3.62177466 59.9357595,4.3324746 58.0242044,16.507492 C57.8528788,17.5986938 58.5985858,18.6221744 59.6897875,18.7935 C60.7809893,18.9648257 61.80447,18.2191187 61.9757956,17.1279169 Z" id="Eyebrow" fill-rule="nonzero" transform="translate(73.000097, 9.410436) scale(-1, 1) translate(-73.000097, -9.410436) "></path>
                            </g>
                        </g>
                    </g>
                    <g id="Top" stroke-width="1" fill-rule="evenodd">
                        <mask id="mask-6" fill="white">
                            <use xlink:href="#path-5"></use>
                        </mask>
                        <g id="Mask"></g>
                        <g id="Top/Long-Hair/Big-Hair" mask="url(#mask-6)">
                            <g transform="translate(-1.000000, 0.000000)">
                                <g id="Hair" stroke-width="1" fill="none" fill-rule="evenodd" transform="translate(16.000000, 13.000000)">
                                    <mask id="mask-8" fill="white">
                                        <use xlink:href="#path-7"></use>
                                    </mask>
                                    <use fill="#314756" xlink:href="#path-7"></use>
                                    <g id="Color/Hair/Brown-Dark" mask="url(#mask-8)" fill="#4A312C">
                                        <g transform="translate(-15.000000, -13.000000)" id="Color">
                                            <rect x="0" y="0" width="264" height="280"></rect>
                                        </g>
                                    </g>
                                </g>
                                <g id="Shadow" stroke-width="1" fill="none" fill-rule="evenodd" transform="translate(16.000000, 13.000000)">
                                    <mask id="mask-10" fill="white">
                                        <use xlink:href="#path-9"></use>
                                    </mask>
                                    <g id="Shape"></g>
                                    <path d="M30.0988695,115.056827 C27.7250732,118.08281 24.5296181,122.528485 24.3618393,122.19381 C26.2345006,119.810609 27.3747977,117.011661 27.3409475,113.436088 C27.517612,95.334874 15.4366324,87.8674306 27.3409475,53.4185647 C28.0096512,51.5090274 29.1070085,49.7044671 30.585889,48.0048838 C20.2433352,82.4586863 31.3685109,90.3556196 31.2026676,109 C31.2224682,111.294844 30.8223327,113.284923 30.0988695,115.056827 Z M202.419413,48.0048838 C203.898293,49.7044671 204.995651,51.5090274 205.664354,53.4185647 C215.822041,82.8130155 208.516445,92.5627534 206.263744,106.036479 C205.964379,106.841192 206.195125,107.789747 205.880216,108.603009 C175.207016,98.1454461 147.589972,78.5596292 131.494917,55.6119279 C108.710969,85.0357527 58.3544031,85.3732378 33.6737341,110.936101 C34.0607045,110.391798 34.4280855,109.884956 34.7584999,109.446288 C57.2940449,79.527377 108.24688,80.3241416 130.845581,48.302359 C146.243536,72.3904102 172.664446,92.9495135 202.009146,103.926748 C202.310417,103.073073 202.089664,102.077381 202.376063,101.232679 C204.483829,87.4002546 211.215481,77.3069293 202.419413,48.0048838 Z" id="Shadow-Mask" fill-opacity="0.16" fill="#000000" mask="url(#mask-10)"></path>
                                </g>
                                <path d="M50.7584999,122.446288 C73.2940449,92.527377 124.24688,93.3241416 146.845581,61.302359 C162.243536,85.3904102 188.664446,105.949514 218.009146,116.926748 C218.310417,116.073073 218.089664,115.077381 218.376063,114.232679 C220.531197,100.089398 227.520377,89.8551619 217.802634,59 C206.165705,22.5393276 176.088708,13.7681718 133.002651,13.0159929 C132.336177,13.0049705 132.16951,13.0024268 132.002651,13 C88.9165934,13.7681718 58.8395963,22.5393276 47.2026676,59 C35.8139454,95.1607482 47.3716806,102.999274 47.2026676,122 C47.2350518,125.753256 46.1441426,128.691293 44.3525888,131.192923 C44.5361111,131.59459 48.5061717,125.436551 50.7584999,122.446288 Z" id="Light" fill-opacity="0.1" fill="#FFFFFF" fill-rule="evenodd"></path>
                                <g id="Facial-Hair/-Blank" fill="none" transform="translate(49.000000, 72.000000)"></g>
                                <g id="Top/_Resources/Blank" fill="none" transform="translate(62.000000, 85.000000)"></g>
                            </g>
                        </g>
                    </g>
                </g>
            </g>
        </g>
    </g>
</svg>

<svg width="233" height="267" xmlns="http://www.w3.org/2000/svg" xmlns:xlink="http://www.w3.org/1999/xlink"><defs><path d="M124 144.611V163h4c39.765 0 72 32.235 72 72v9H0v-9c0-39.765 32.235-72 72-72h4v-18.389c-17.237-8.189-29.628-24.924-31.695-44.73C38.48 99.058 34 94.052 34 88V74c0-5.946 4.325-10.882 10-11.834V56c0-30.928 25.072-56 56-56s56 25.072 56 56v6.166c5.675.952 10 5.888 10 11.834v14c0 6.052-4.48 11.058-10.305 11.881-2.067 19.806-14.458 36.541-31.695 44.73z" id="a"/><path d="M165.624 29.268C202.76 32.138 232 63.18 232 101.052V110H32v-8.948c0-38.217 29.775-69.48 67.393-71.855A14.107 14.107 0 0099 32.5C99 44.374 113.998 54 132.5 54c18.502 0 33.5-9.626 33.5-21.5 0-1.098-.128-2.178-.376-3.232z" id="c"/><path id="e" d="M0 0h264v280H0z"/><path d="M217 267v-9c0-39.765-32.235-72-72-72h-4v-18.389c17.53-8.328 30.048-25.496 31.791-45.744C178.57 121.002 183 116.02 183 110V97c0-.568-.04-1.128-.116-1.675-21.52-11.588-39.994-28.18-52.038-47.023C112.764 73.924 76.53 78.535 51.224 94.68A12.06 12.06 0 0051 97v13c0 6.019 4.43 11.002 10.209 11.867 1.743 20.248 14.26 37.416 31.791 45.744V186h-4c-39.765 0-72 32.235-72 72v9h-.995c-38.439-21.949 4.852-57.111 5.17-69C21.54 186.256-.278 183.561.002 155c.941-29.028 31.369-26.412 31.2-46 .169-19-11.39-26.84 0-63C42.84 9.54 72.917.768 116.003.016V0l.5.008.5-.008v.016c43.086.752 73.163 9.523 84.8 45.984 11.388 36.16-.17 44 0 63-.17 19.588 30.258 16.972 31.2 46 .28 28.561-21.537 31.256-21.172 43 .317 11.889 43.608 47.051 5.169 69z" id="g"/><path d="M217 267v-9c0-39.765-32.235-72-72-72h-4v-46H93v46h-4c-39.765 0-72 32.235-72 72v9h-.995c-38.439-21.949 4.852-57.111 5.17-69C21.54 186.256-.278 183.561.002 155c.941-29.028 31.369-26.412 31.2-46 .169-19-11.39-26.84 0-63C42.84 9.54 72.917.768 116.003.016V0l.5.008.5-.008v.016c43.086.752 73.163 9.523 84.8 45.984 11.388 36.16-.17 44 0 63-.17 19.588 30.258 16.972 31.2 46 .28 28.561-21.537 31.256-21.172 43 .317 11.889 43.608 47.051 5.169 69z" id="i"/></defs><g fill="none" fill-rule="evenodd"><g transform="translate(17 23)"><mask id="b" fill="#fff"><use xlink:href="#a"/></mask><use fill="#D0C6AC" xlink:href="#a"/><g mask="url(#b)" fill="#EDB98A"><path d="M-32 0h264v244H-32z"/></g><path d="M156 94v8c0 30.928-25.072 56-56 56s-56-25.072-56-56v-8c0 30.928 25.072 56 56 56s56-25.072 56-56z" fill-opacity=".1" fill="#000" mask="url(#b)"/></g><g transform="translate(-15 157)"><mask id="d" fill="#fff"><use xlink:href="#c"/></mask><use fill="#E6E6E6" xlink:href="#c"/><g mask="url(#d)" fill="#25557C"><path d="M0 0h264v110H0z"/></g><g mask="url(#d)" fill="#FFF"><path d="M164.685 71.403c-1.393-6.431-6.21-10.15-12.5-11.586-2.526-.577-10.913-2.387-9.607 2.408.593 2.172.263 3.964-1.553 5.766-1.77 1.755-5.231 2.2-6.952-.011-1.474-1.895.427-4.721-.721-6.567-.446-.717-1.216-1.083-2.028-.732-1.141.494-.534 1.555-1.073 2.318-.849 1.203-1.245.826-2.01-.373-.48-.754-.008-1.575-1.246-1.897-1.433-.372-1.903.828-2.032 1.923-.082.687.322 1.792.336 2.488.027 1.364-.09 3.323-.725 4.529-1.125 2.137-2.704 1.453-4.383.096-1.98-1.602-2.561-3.385-2.178-5.817.459-2.917.292-5.709-3.28-3.884-5.02 2.564-9.68 7.135-12.588 11.919-2.445 4.02-4.37 8.893-2.203 13.473 2.21 4.675 5.862 8.69 10.966 9.883 1.321.31 5.092 1.811 6.345.552 1.947-1.957-2.548-3.783-3.435-4.975-1.258-1.69-2.337-4.915-.957-6.822 1.76-2.427 3.6-1.074 5.045.644 1.136 1.348 2.75 4.826 4.506 2.022 1.21-1.931 1.101-5.102 4.4-3.717 4.715 1.978 4.86 11.112 5.7 15.291.367 1.83 2.035 4.064 3.47 1.525.79-1.396.364-4.421.22-5.863-.296-2.985-1.08-5.92-.11-8.877.562-1.71 2.001-4.16 4.13-2.844 1.725 1.066 1.006 5.816 3.353 5.807 2.066-.007 1.502-3.791 2.603-5.039 1.68-1.904 4.916-.999 5.91 1.249 1.336 3.025-2.203 5.126-2.044 7.785.154 2.591 3.494 1.58 4.89.923 2.872-1.35 5.119-3.853 6.676-6.571 2.407-4.204 4.125-10.222 3.075-15.026"/></g></g><path d="M103 137c0 5.372 6.158 9 14 9s14-3.628 14-9c0-1.105-.95-2-2-2-1.293 0-1.87.905-2 2-1.242 2.938-4.317 4.716-10 5-5.683-.284-8.758-2.062-10-5-.13-1.095-.707-2-2-2-1.05 0-2 .895-2 2z" fill="#000" fill-opacity=".6" fill-rule="nonzero"/><path d="M105 117c0 4.418 5.373 8 12 8s12-3.582 12-8" fill="#000" fill-opacity=".16"/><g transform="translate(61 77)"><circle fill="#FFF" cx="30" cy="22" r="14"/><circle fill="#FFF" cx="82" cy="22" r="14"/><circle fill-opacity=".7" fill="#000" cx="30" cy="14" r="6"/><circle fill-opacity=".7" fill="#000" cx="82" cy="14" r="6"/></g><g fill-rule="nonzero" fill="#000" fill-opacity=".6"><path d="M76.976 86.128c1.495-9.523 14.083-16.02 23.188-11.827a2 2 0 001.672-3.633c-11.487-5.29-26.9 2.664-28.812 14.84a2 2 0 103.952.62zM157.024 86.128c-1.495-9.523-14.082-16.02-23.187-11.827a2 2 0 01-1.673-3.633c11.487-5.29 26.9 2.664 28.812 14.84a2 2 0 01-3.952.62z"/></g><g transform="translate(-15 -13)"><mask id="f" fill="#fff"><use xlink:href="#e"/></mask><g mask="url(#f)"><g transform="translate(15 13)"><mask id="h" fill="#fff"><use xlink:href="#g"/></mask><use fill="#314756" xlink:href="#g"/><g mask="url(#h)" fill="#4A312C"><path d="M-15-13h264v280H-15z"/></g></g><g transform="translate(15 13)"><mask id="j" fill="#fff"><use xlink:href="#i"/></mask><path d="M30.099 115.057c-2.374 3.026-5.57 7.471-5.737 7.137 1.873-2.383 3.013-5.182 2.979-8.758.177-18.101-11.904-25.569 0-60.017.669-1.91 1.766-3.715 3.245-5.414-10.343 34.454.783 42.35.617 60.995.02 2.295-.38 4.285-1.104 6.057zm172.32-67.052c1.48 1.7 2.577 3.504 3.245 5.414 10.158 29.394 2.852 39.144.6 52.617-.3.805-.069 1.754-.384 2.567-30.673-10.458-58.29-30.043-74.385-52.991-22.784 29.424-73.14 29.761-97.821 55.324.387-.544.754-1.051 1.084-1.49 22.536-29.919 73.489-29.122 96.088-61.144 15.398 24.088 41.818 44.648 71.163 55.625.301-.854.08-1.85.367-2.694 2.108-13.833 8.84-23.926.043-53.228z" fill-opacity=".16" fill="#000" mask="url(#j)"/></g><path d="M49.758 122.446c22.536-29.919 73.489-29.122 96.088-61.144 15.398 24.088 41.818 44.648 71.163 55.625.301-.854.08-1.85.367-2.694 2.155-14.144 9.144-24.378-.573-55.233-11.637-36.46-41.714-45.232-84.8-45.984l-1-.016c-43.086.768-73.163 9.54-84.8 46-11.39 36.16.169 44 0 63 .032 3.753-1.059 6.691-2.85 9.193.183.402 4.153-5.756 6.405-8.747z" fill-opacity=".1" fill="#FFF"/></g></g></g></svg>
